Adwaita++/actions/22/labplot-xy-fit-curve.svg

<svg height="22" viewBox="0 0 22 22" width="22" xmlns="http://www.w3.org/2000/svg">
  <path d="m13.519531 2.0039062c-.8178 0-1.525437.7232575-1.523437 1.5234376-.002.80023.705677 1.4765624 1.523437 1.4765624.81779 0 1.478463-.6762925 1.476563-1.4765624.002-.80022-.658733-1.5234376-1.476563-1.5234376zm-6.9999998 1c-.8178 0-1.5254374.7232575-1.5234374 1.5234376-.002.80023.7056774 1.4765624 1.5234374 1.4765624.81779 0 1.4784626-.6762925 1.4765626-1.4765624.0019999-.80022-.6587326-1.5234376-1.4765626-1.5234376zm-5 4c-.81779995 0-1.52543745.7232575-1.52343745 1.5234376-.002.80023.7056775 1.4765622 1.52343745 1.4765622.64748 0 1.1911251-.4261498 1.390625-.9999998h13.0859378v-1h-13.0996096c-.21058-.5661099-.7444432-1-1.3769532-1zm12.9999998 2.9999998c-.8178 0-1.525437.723258-1.523437 1.523438-.002.80023.705677 1.476562 1.523437 1.476562.81779 0 1.478463-.676292 1.476563-1.476562.002-.80022-.658733-1.523438-1.476563-1.523438zm-5.4999998 1c-.8178 0-1.5254374.723258-1.5234374 1.523438-.002.80023.7056774 1.476562 1.5234374 1.476562.81779 0 1.4784628-.676292 1.4765628-1.476562.002-.80022-.6587328-1.523438-1.4765628-1.523438z" fill="#444" transform="translate(3 3)"/>
</svg>

<svg xmlns="http://www.w3.org/2000/svg" width="22" height="22" viewBox="0 0 22 22">
 <defs>
  <style id="current-color-scheme" type="text/css">
   .ColorScheme-Text { color:#444444; } .ColorScheme-Highlight { color:#4285f4; }
  </style>
 </defs>
 <path style="fill:currentColor" class="ColorScheme-Text" d="M 13.519531 2.0039062 C 12.701731 2.0039062 11.994094 2.7271637 11.996094 3.5273438 C 11.994094 4.3275738 12.701771 5.0039062 13.519531 5.0039062 C 14.337321 5.0039062 14.997994 4.3276137 14.996094 3.5273438 C 14.998094 2.7271238 14.337361 2.0039062 13.519531 2.0039062 z M 6.5195312 3.0039062 C 5.7017312 3.0039062 4.9940938 3.7271637 4.9960938 4.5273438 C 4.9940938 5.3275738 5.7017712 6.0039062 6.5195312 6.0039062 C 7.3373212 6.0039062 7.9979938 5.3276137 7.9960938 4.5273438 C 7.9980937 3.7271238 7.3373612 3.0039062 6.5195312 3.0039062 z M 1.5195312 7.0039062 C 0.70173125 7.0039062 -0.00590625 7.7271637 -0.00390625 8.5273438 C -0.00590625 9.3275738 0.70177125 10.003906 1.5195312 10.003906 C 2.1670112 10.003906 2.7106563 9.5777562 2.9101562 9.0039062 L 15.996094 9.0039062 L 15.996094 8.0039062 L 2.8964844 8.0039062 C 2.6859044 7.4377963 2.1520412 7.0039062 1.5195312 7.0039062 z M 14.519531 10.003906 C 13.701731 10.003906 12.994094 10.727164 12.996094 11.527344 C 12.994094 12.327574 13.701771 13.003906 14.519531 13.003906 C 15.337321 13.003906 15.997994 12.327614 15.996094 11.527344 C 15.998094 10.727124 15.337361 10.003906 14.519531 10.003906 z M 9.0195312 11.003906 C 8.2017312 11.003906 7.4940938 11.727164 7.4960938 12.527344 C 7.4940938 13.327574 8.2017712 14.003906 9.0195312 14.003906 C 9.8373212 14.003906 10.497994 13.327614 10.496094 12.527344 C 10.498094 11.727124 9.8373612 11.003906 9.0195312 11.003906 z" transform="translate(3 3)"/>
</svg>
